_src/assets/icons/original/linkedin.svg

<svg xmlns="http://www.w3.org/2000/svg" preserveAspectRatio="xMidYMid" width="64" height="61" viewBox="0 0 64 61"><path d="M49.749 60.999v-22.193c0-4.549-1.316-9.106-6.672-9.106-5.357 0-7.596 4.557-7.596 9.217v22.082h-14.292v-40.636h14.292v5.471c3.76-4.779 7.028-6.752 12.952-6.752 5.929 0 15.567 2.768 15.567 18.816v23.101h-14.251zm-41.767-46.66c-4.41 0-7.982-3.207-7.982-7.166 0-3.962 3.572-7.173 7.982-7.173 4.406 0 7.978 3.211 7.978 7.173 0 3.959-3.572 7.166-7.978 7.166zm7.13 46.66h-14.314v-40.636h14.314v40.636z" class="cls-2" fill-rule="evenodd"/></svg>

<svg xmlns="http://www.w3.org/2000/svg" xmlns:xlink="http://www.w3.org/1999/xlink" preserveAspectRatio="xMidYMid" width="64" height="61" viewBox="0 0 64 61">

  <path d="M49.749,60.999 C49.749,60.999 49.749,38.806 49.749,38.806 C49.749,34.257 48.433,29.700 43.077,29.700 C37.720,29.700 35.481,34.257 35.481,38.917 C35.481,38.917 35.481,60.999 35.481,60.999 C35.481,60.999 21.189,60.999 21.189,60.999 C21.189,60.999 21.189,20.363 21.189,20.363 C21.189,20.363 35.481,20.363 35.481,20.363 C35.481,20.363 35.481,25.834 35.481,25.834 C39.241,21.055 42.509,19.082 48.433,19.082 C54.362,19.082 64.000,21.850 64.000,37.898 C64.000,37.898 64.000,60.999 64.000,60.999 C64.000,60.999 49.749,60.999 49.749,60.999 ZM7.982,14.339 C3.572,14.339 -0.000,11.132 -0.000,7.173 C-0.000,3.211 3.572,-0.000 7.982,-0.000 C12.388,-0.000 15.960,3.211 15.960,7.173 C15.960,11.132 12.388,14.339 7.982,14.339 ZM15.112,60.999 C15.112,60.999 0.798,60.999 0.798,60.999 C0.798,60.999 0.798,20.363 0.798,20.363 C0.798,20.363 15.112,20.363 15.112,20.363 C15.112,20.363 15.112,60.999 15.112,60.999 Z" id="path-1" class="cls-2" fill-rule="evenodd"/>
</svg>
